apps/trade/public/tokens/gala.svg

<svg width="24" height="25" viewBox="0 0 24 25" fill="none" xmlns="http://www.w3.org/2000/svg">
<rect y="0.5" width="24" height="24" rx="12" fill="white"/>
<g clip-path="url(#clip0_1870_25030)">
<path fill-rule="evenodd" clip-rule="evenodd" d="M4.28906 17.3171C4.50766 17.4333 4.79457 17.6109 4.9995 17.7475C5.07464 17.7987 5.16003 17.8431 5.242 17.8944C5.28641 17.9217 5.31373 17.9354 5.35472 17.9627C5.37521 17.9763 5.39229 17.99 5.41278 18.0003C5.43669 18.0139 5.45035 18.0207 5.47426 18.0344L8.10424 19.6534C8.14181 19.6739 8.17597 19.6978 8.21696 19.7217L10.6044 21.1938C10.6318 21.2109 10.642 21.2143 10.6659 21.2314L11.8067 21.9316C11.8579 21.9589 11.8784 21.993 11.9365 21.9965V13.0818L11.5745 12.8735C11.5403 12.8564 11.5198 12.8428 11.4856 12.8223L11.2022 12.6583C10.7991 12.4466 10.4234 12.187 10.017 11.9752C9.97597 11.9547 9.96231 11.9411 9.9179 11.9206L9.55586 11.7122C9.46705 11.6576 9.06401 11.4151 8.99229 11.398V12.8052L10.4746 13.6625C10.5156 13.6864 10.543 13.7035 10.5805 13.724C10.6215 13.7445 10.642 13.7684 10.6932 13.7786V19.8139C10.4337 19.6397 10.157 19.4826 9.89058 19.3221L9.24504 18.9225C8.98204 18.7448 8.69855 18.598 8.43555 18.4238C8.40481 18.4033 8.38773 18.3965 8.35699 18.376L7.7866 18.0242C7.72512 17.99 7.68071 17.9627 7.62265 17.9217C7.4143 17.7817 7.18887 17.6587 6.97711 17.5221C6.91904 17.4845 6.87123 17.4606 6.81316 17.423C6.49893 17.2113 6.16079 17.02 5.83973 16.8253C5.8124 16.8082 5.78849 16.7911 5.76458 16.7741L5.51525 16.6204V9.37597C5.46743 9.34523 5.41961 9.3179 5.36496 9.28716C5.31031 9.25642 5.26933 9.23251 5.21468 9.19836L4.44618 8.76117C4.38811 8.73043 4.34371 8.69627 4.28906 8.66895V17.3171Z" fill="#060606"/>
<path fill-rule="evenodd" clip-rule="evenodd" d="M12.6728 13.0682V16.494L13.1271 16.2378C13.3355 16.1285 13.5267 15.9953 13.7351 15.886C13.7727 15.8655 13.7863 15.8587 13.8136 15.8382C13.841 15.8211 13.8683 15.8109 13.8956 15.7972V13.7786C13.9366 13.7684 13.9503 13.7616 13.981 13.7411C14.0117 13.7206 14.0322 13.7137 14.063 13.6967C14.2235 13.6044 14.3806 13.4951 14.5446 13.4132C14.7666 13.3039 14.9783 13.1672 15.1901 13.0409C15.2448 13.0101 15.2892 12.9828 15.3472 12.9487L15.6683 12.7676C15.7024 12.7471 15.7127 12.7403 15.7469 12.7198C15.8869 12.6481 16.0167 12.5524 16.1601 12.4773L16.3172 12.3851C16.3446 12.368 16.3719 12.3578 16.3992 12.3441L17.4478 11.7361C17.6698 11.62 17.8747 11.48 18.0933 11.3638L18.4178 11.1726C18.5271 11.1077 18.633 11.0496 18.7423 10.9813C18.8004 10.9471 18.8482 10.9232 18.8994 10.8891L19.0702 10.7934V16.6375C19.0224 16.6477 19.0087 16.6648 18.9677 16.6887L18.6672 16.8731C18.6364 16.8936 18.6125 16.9107 18.5749 16.9346C18.5339 16.9585 18.5066 16.979 18.4725 16.9995C18.4349 17.02 18.4144 17.0371 18.3768 17.0576L18.0728 17.2386C17.7996 17.3957 17.5434 17.5733 17.2702 17.7304L16.4709 18.2257C16.4334 18.2496 16.4129 18.2598 16.3753 18.2838C16.0167 18.5263 15.6341 18.7278 15.2721 18.9635C15.2072 19.0079 15.1389 19.0454 15.074 19.0864L14.0732 19.7012C14.0425 19.7183 14.0083 19.7388 13.9776 19.7593C13.6804 19.954 13.3696 20.1213 13.0725 20.316L12.666 20.5654V21.9999C12.7343 21.9828 12.8436 21.9008 12.9051 21.8633C12.9871 21.812 13.0656 21.771 13.1476 21.7164C13.3765 21.5627 13.6258 21.4363 13.8546 21.2826C13.899 21.2553 13.9332 21.2314 13.9742 21.2075L14.5787 20.8352C14.6197 20.8113 14.6505 20.7908 14.6914 20.7669L17.9089 18.7858C17.9533 18.7585 17.9909 18.7346 18.0284 18.7107L20.1768 17.3889C20.2178 17.3616 20.2588 17.3376 20.2998 17.3172V8.68262C20.2383 8.69628 20.2281 8.71677 20.1802 8.7441C20.1358 8.76801 20.1051 8.78508 20.0641 8.80899L19.3503 9.22228C19.1078 9.35207 18.8823 9.5126 18.6364 9.63556L16.7271 10.7354C16.6417 10.7832 16.5734 10.8276 16.4914 10.8754L16.1396 11.0803C15.8903 11.2067 15.5283 11.4219 15.2994 11.5653C15.2584 11.5927 15.2243 11.6029 15.1833 11.6302L14.408 12.0811C14.3738 12.0982 14.3806 12.0982 14.3465 12.1187L14.104 12.2519C13.9605 12.327 13.8341 12.4192 13.6907 12.4944C13.6565 12.5115 13.6565 12.5183 13.6292 12.532L13.3867 12.6652C13.2262 12.7437 12.8026 13.0409 12.6728 13.0682Z" fill="#060606"/>
<path fill-rule="evenodd" clip-rule="evenodd" d="M4.76367 8.09526C4.81149 8.1055 4.83881 8.13283 4.88322 8.15674C5.04375 8.24213 5.1872 8.34459 5.35115 8.42657L6.64906 9.17799C7.26728 9.5537 7.9094 9.88843 8.53103 10.2641L8.64716 10.329C8.69157 10.3529 8.72231 10.3734 8.76329 10.3939L9.47031 10.8038C9.50105 10.8209 9.49764 10.8209 9.52155 10.8345C9.85286 11.0361 10.2012 11.2068 10.5291 11.4152L11.5811 12.0197C11.6221 12.0436 11.6529 12.0641 11.6938 12.088C11.8168 12.1632 12.2574 12.4296 12.3018 12.4296C12.3667 12.4296 12.7424 12.1905 12.8381 12.1324L13.0225 12.0232C13.084 11.9856 13.1386 11.9617 13.2001 11.9241C13.265 11.8865 13.3128 11.8592 13.3777 11.8216L13.7363 11.6099C13.7978 11.5723 13.8525 11.545 13.9105 11.5074L14.4536 11.2C14.4878 11.1829 14.5117 11.1658 14.5424 11.1488C14.5732 11.1283 14.5937 11.118 14.6312 11.0975L14.9933 10.8892C15.0513 10.855 15.1162 10.8038 15.1845 10.7867C15.1743 10.7457 15.1675 10.7491 15.1333 10.7287L13.9754 10.0626C13.5143 10.3051 13.0771 10.5886 12.6195 10.838C12.5819 10.8584 12.5511 10.8789 12.517 10.9028C12.4453 10.9472 12.3804 10.9848 12.3052 11.0258L11.6085 10.6228C11.3659 10.4998 11.1439 10.3393 10.9014 10.2129C10.8468 10.1822 10.7921 10.148 10.7443 10.1207L9.33028 9.30778C9.30295 9.2907 9.27904 9.27704 9.25172 9.25996C9.22098 9.23947 9.20048 9.23264 9.16974 9.21556L7.3595 8.1704C7.32534 8.14991 7.32193 8.13966 7.27411 8.12941C7.31168 8.07476 7.35608 8.07135 7.41756 8.03378C7.46879 7.99962 7.51661 7.98254 7.57126 7.9518L9.14583 7.10133C9.17999 7.08084 9.17999 7.07742 9.21415 7.06034C9.2483 7.04326 9.26538 7.03643 9.29612 7.01594C9.35077 6.98178 9.40542 6.95788 9.46007 6.93055L11.424 5.87173C11.4582 5.85465 11.4684 5.8444 11.5026 5.82391L12.3018 5.39696C12.3462 5.39696 12.9508 5.74877 13.0908 5.82049C13.125 5.83757 13.1489 5.84782 13.183 5.86831C13.224 5.89222 13.2343 5.90247 13.2821 5.92296L15.4544 7.0945C15.6456 7.21404 16.2263 7.51803 16.4312 7.62049C16.6635 7.73662 16.8855 7.87666 17.1178 7.99279L18.4088 8.69298C18.4532 8.71689 18.4669 8.72372 18.5079 8.74763C18.6616 8.83985 18.665 8.76129 18.9143 8.62467L19.3754 8.36167C19.4574 8.31727 19.7682 8.11917 19.84 8.10209C19.8263 8.05769 19.7853 8.04061 19.7443 8.0167L19.2764 7.76053C19.0407 7.64099 18.805 7.49412 18.5694 7.3814L18.1014 7.12524C17.9409 7.04326 17.7804 6.96812 17.6301 6.87249L15.2699 5.59848C15.2221 5.57457 15.1948 5.56091 15.1538 5.53359L14.2043 5.02125C14.1599 4.99734 14.1326 4.98027 14.0881 4.95636C14.0642 4.94269 14.054 4.93928 14.0335 4.92903L12.7868 4.25275C12.7083 4.20493 12.3428 4 12.2984 4C12.2608 4 11.9978 4.15712 11.9398 4.18444L9.23805 5.6463C9.19365 5.66679 9.1595 5.68387 9.11851 5.70778L7.22629 6.72903C7.18189 6.75294 7.16139 6.77002 7.11016 6.79393L6.93938 6.88615C6.90523 6.90323 6.90523 6.91006 6.8779 6.92372C6.84033 6.94763 6.79935 6.95787 6.75836 6.9852L6.39631 7.17989C6.34849 7.2038 6.32458 7.22429 6.28018 7.24478L5.73028 7.54535C5.70978 7.5556 5.70978 7.55218 5.6927 7.56243C5.61415 7.60683 5.53217 7.63757 5.45703 7.6888C5.41263 7.71613 5.3853 7.72638 5.33749 7.75028L4.80807 8.04402C4.76709 8.06793 4.77733 8.04744 4.76367 8.09526Z" fill="#060606"/>
</g>
<defs>
<clipPath id="clip0_1870_25030">
<rect width="16.019" height="18" fill="white" transform="translate(4.28906 4)"/>
</clipPath>
</defs>
</svg>

<svg width="24" height="25" fill="none" xmlns="http://www.w3.org/2000/svg">
    <rect y=".5" width="24" height="24" rx="12" fill="#fff"/>
    <g clip-path="url(#a)" fill-rule="evenodd" clip-rule="evenodd" fill="#060606">
        <path d="M4.29 17.317c.218.116.505.294.71.43.075.052.16.096.242.147.044.028.072.041.113.069.02.013.037.027.058.037l.061.034 2.63 1.62c.038.02.072.044.113.068l2.387 1.472c.028.017.038.02.062.037l1.14.7c.052.028.072.062.13.066v-8.915l-.361-.209c-.035-.017-.055-.03-.09-.05l-.283-.165c-.403-.211-.779-.471-1.185-.683-.041-.02-.055-.034-.1-.054l-.361-.209c-.089-.054-.492-.297-.564-.314v1.407l1.483.857c.04.024.068.041.106.062.04.02.061.044.112.055v6.035c-.26-.174-.536-.331-.802-.492l-.646-.4c-.263-.177-.546-.324-.81-.498-.03-.02-.047-.027-.078-.048l-.57-.352a1.646 1.646 0 0 1-.164-.102c-.209-.14-.434-.263-.646-.4-.058-.037-.106-.061-.164-.099-.314-.212-.652-.403-.973-.598-.028-.017-.052-.034-.075-.05l-.25-.155V9.376a2.922 2.922 0 0 0-.15-.089 3.46 3.46 0 0 1-.15-.089l-.769-.437c-.058-.03-.102-.065-.157-.092v8.648ZM12.673 13.068v3.426l.454-.256c.208-.11.4-.243.608-.352.038-.02.051-.027.079-.048.027-.017.054-.027.082-.04v-2.02a.216.216 0 0 0 .085-.037c.03-.02.051-.027.082-.044.16-.093.318-.202.482-.284.222-.11.433-.246.645-.372.055-.03.1-.058.157-.092l.321-.181.079-.048c.14-.072.27-.168.413-.243l.157-.092c.028-.017.055-.027.082-.04l1.049-.609c.222-.116.427-.256.645-.372l.325-.191c.11-.065.215-.123.324-.192.058-.034.106-.058.157-.092l.171-.096v5.845c-.048.01-.061.027-.102.05l-.3.185c-.032.02-.055.038-.093.062-.041.024-.068.044-.102.065-.038.02-.059.037-.096.058l-.304.18c-.273.158-.53.335-.803.492l-.8.496c-.037.024-.057.034-.095.058-.358.242-.74.444-1.103.68-.065.044-.133.081-.198.122l-1 .615c-.031.017-.066.038-.096.058-.298.195-.608.362-.905.557l-.407.25V22c.068-.017.178-.1.24-.137.081-.051.16-.092.242-.147.229-.153.478-.28.707-.433.044-.028.078-.052.12-.076l.604-.372.112-.068 3.218-1.981.12-.075 2.148-1.322c.04-.027.082-.051.123-.072V8.683c-.062.013-.072.034-.12.061a3.554 3.554 0 0 0-.116.065l-.714.413c-.242.13-.468.29-.714.414l-1.909 1.1c-.085.047-.154.092-.236.14l-.351.204c-.25.127-.612.342-.84.485-.042.028-.076.038-.117.065l-.775.451c-.034.017-.027.017-.061.038l-.243.133c-.143.075-.27.167-.413.242-.035.018-.035.024-.062.038l-.242.133c-.16.079-.584.376-.714.403ZM4.764 8.095c.047.01.075.038.12.062.16.085.303.188.467.27l1.298.751c.618.376 1.26.71 1.882 1.086l.116.065c.045.024.075.044.116.065l.707.41.052.03c.33.202.68.373 1.007.581l1.052.605.113.068c.123.075.563.342.608.342.065 0 .44-.24.536-.298l.185-.109c.061-.037.116-.061.177-.099l.178-.102.358-.212c.062-.038.116-.065.175-.103l.543-.307c.034-.017.058-.034.088-.051.031-.02.052-.031.09-.051l.361-.209c.058-.034.123-.085.191-.102-.01-.041-.016-.038-.05-.058l-1.159-.666c-.46.242-.898.526-1.355.775a4.257 4.257 0 0 1-.314.188l-.697-.403c-.243-.123-.465-.284-.708-.41-.054-.03-.109-.065-.157-.092L9.33 9.308l-.078-.048c-.031-.02-.052-.027-.082-.044L7.36 8.17c-.035-.02-.038-.03-.086-.04.038-.055.082-.059.144-.096.05-.034.099-.051.153-.082l1.575-.85c.034-.021.034-.025.068-.042s.051-.024.082-.044c.055-.034.11-.058.164-.085l1.964-1.06c.034-.016.044-.027.079-.047l.799-.427c.044 0 .649.352.789.423.034.018.058.028.092.048.041.024.051.034.1.055l2.171 1.171c.192.12.772.424.977.526.232.117.454.257.687.373l1.29.7c.045.024.059.03.1.055.154.092.157.013.406-.123l.461-.263c.082-.045.393-.243.465-.26-.014-.044-.055-.061-.096-.085l-.468-.256c-.235-.12-.471-.267-.707-.38l-.468-.256c-.16-.082-.32-.157-.47-.253L15.27 5.598a.937.937 0 0 1-.116-.064l-.95-.513-.116-.065-.054-.027-1.247-.676c-.079-.048-.444-.253-.489-.253-.037 0-.3.157-.358.184L9.238 5.646a1.31 1.31 0 0 0-.12.062L7.227 6.729c-.044.024-.065.041-.116.065l-.17.092c-.035.017-.035.024-.062.038-.038.024-.079.034-.12.061l-.362.195c-.048.024-.071.044-.116.065l-.55.3c-.02.01-.02.007-.037.017-.079.045-.16.076-.236.127-.044.027-.072.037-.12.061l-.529.294c-.04.024-.03.003-.044.051Z"/>
    </g>
    <defs>
        <clipPath id="a">
            <path fill="#fff" d="M4.29 4h16.018v18H4.29z"/>
        </clipPath>
    </defs>
</svg>
